img/icons/s.svg

<svg id="ico" viewBox="0 0 19 27" xmlns="http://www.w3.org/2000/svg">
    <path d="M18.935 3.045L15.12 7.07C14.63 6.44 13.965 5.92667 13.125 5.53C12.3083 5.13333 11.5033 4.935 10.71 4.935C9.77667 4.935 8.96 5.13333 8.26 5.53C7.58333 5.90333 7.245 6.53333 7.245 7.42C7.245 7.81667 7.32667 8.16667 7.49 8.47C7.65333 8.75 7.92167 9.00667 8.295 9.24C8.69167 9.45 9.07667 9.63667 9.45 9.8C9.82333 9.94 10.36 10.115 11.06 10.325C11.97 10.6283 12.6817 10.8733 13.195 11.06C13.7083 11.2467 14.3617 11.5617 15.155 12.005C15.9717 12.425 16.6017 12.8683 17.045 13.335C17.4883 13.8017 17.885 14.4317 18.235 15.225C18.585 15.995 18.76 16.8467 18.76 17.78C18.76 20.4633 17.8383 22.5167 15.995 23.94C14.175 25.34 11.935 26.04 9.275 26.04C7.47833 26.04 5.75167 25.725 4.095 25.095C2.43833 24.465 1.07333 23.59 0 22.47L3.92 18.48C4.52667 19.25 5.32 19.88 6.3 20.37C7.30333 20.86 8.295 21.105 9.275 21.105C10.2783 21.105 11.095 20.895 11.725 20.475C12.3783 20.0317 12.705 19.3433 12.705 18.41C12.705 18.0367 12.6117 17.71 12.425 17.43C12.2617 17.1267 12.075 16.8817 11.865 16.695C11.655 16.485 11.2817 16.2633 10.745 16.03C10.2083 15.7967 9.75333 15.6217 9.38 15.505C9.00667 15.365 8.4 15.155 7.56 14.875C6.65 14.5717 5.86833 14.2567 5.215 13.93C4.56167 13.6033 3.90833 13.1717 3.255 12.635C2.60167 12.0983 2.1 11.4217 1.75 10.605C1.4 9.78833 1.225 8.84333 1.225 7.77C1.225 6.46333 1.505 5.29667 2.065 4.27C2.625 3.22 3.37167 2.40333 4.305 1.82C5.23833 1.21333 6.25333 0.758332 7.35 0.454998C8.47 0.151666 9.625 0 10.815 0C12.2617 0 13.7083 0.268333 15.155 0.805C16.625 1.31833 17.885 2.065 18.935 3.045Z"/>
</svg>

<svg id="ico" xmlns="http://www.w3.org/2000/svg" viewBox="0 0 19 27" xmlns:v="https://vecta.io/nano"><path d="M18.935 3.045L15.12 7.07c-.49-.63-1.155-1.143-1.995-1.54-.817-.397-1.622-.595-2.415-.595-.933 0-1.75.198-2.45.595-.677.373-1.015 1.003-1.015 1.89a2.18 2.18 0 0 0 .245 1.05c.163.28.432.537.805.77l1.155.56 1.61.525 2.135.735c.513.187 1.167.502 1.96.945.817.42 1.447.863 1.89 1.33s.84 1.097 1.19 1.89c.35.77.525 1.622.525 2.555 0 2.683-.922 4.737-2.765 6.16-1.82 1.4-4.06 2.1-6.72 2.1a14.45 14.45 0 0 1-5.18-.945C2.438 24.465 1.073 23.59 0 22.47l3.92-3.99c.607.77 1.4 1.4 2.38 1.89 1.003.49 1.995.735 2.975.735 1.003 0 1.82-.21 2.45-.63.653-.443.98-1.132.98-2.065 0-.373-.093-.7-.28-.98-.163-.303-.35-.548-.56-.735-.21-.21-.583-.432-1.12-.665l-1.365-.525-1.82-.63a18.05 18.05 0 0 1-2.345-.945c-.653-.327-1.307-.758-1.96-1.295S2.1 11.422 1.75 10.605s-.525-1.762-.525-2.835c0-1.307.28-2.473.84-3.5.56-1.05 1.307-1.867 2.24-2.45C5.238 1.213 6.253.758 7.35.455 8.47.152 9.625 0 10.815 0c1.447 0 2.893.268 4.34.805 1.47.513 2.73 1.26 3.78 2.24z"/></svg>
